X: 12041
T: Erin's Fancy
R: hornpipe
M: 4/4
K: Dmajor
|:FG|Ad (3dcd fd AF|GA BG E2 ef|gf ed cd ef|(3efe (3dcB A2 FG|
Ad (3dcd fd AF|GA BG E2 ef|gf ed cA Bc|d2 f2 d2:|
|:(3a^ga|ba fd Ad cd|Be ^df eg fa|ge cA ^GA Bc|(3dce (3dcB A2 (3a^ga|
ba fd Ad cd|Be^df eg fa|ge cA ^GA Bc|d2 dc d2:|

